X: 500
T:Sherlock's Fancy
T:Jack Maguire's, The Snake
M:4/4
L:1/8
S:B.Flaherty
Z:B.Black
R:reel
N: F:http://home.capecod.net/~zouki/webabc/pqrs.abc
N:Posted to the woodenflute mailing list March 2002
K: D
FE|DF F2 DGBG|DFAF GECE|DF F2 ABde|fdAG FAEF|
DF F2 DGBG|DFAF GECE|DF F2 ABde|fdAG FD D2||
fgaf g2 ag|fgaf gfeg|fgaf g2 eg|dfAG FD D2|
fgaf g2 ag|fgaf gfeg|fdAF G2 ag|fdAG FAEF||
<end>
<start>
